styles/5/Numix/24/places/brown-folder-move.svg

<?xml version="1.0" encoding="UTF-8" standalone="no"?>
<svg
   xmlns:dc="http://purl.org/dc/elements/1.1/"
   xmlns:cc="http://creativecommons.org/ns#"
   xmlns:rdf="http://www.w3.org/1999/02/22-rdf-syntax-ns#"
   xmlns:svg="http://www.w3.org/2000/svg"
   xmlns="http://www.w3.org/2000/svg"
   xmlns:sodipodi="http://sodipodi.sourceforge.net/DTD/sodipodi-0.dtd"
   xmlns:inkscape="http://www.inkscape.org/namespaces/inkscape"
   viewBox="0 0 24 24"
   id="svg2"
   version="1.1"
   inkscape:version="0.91 r13725"
   sodipodi:docname="blue-folder-move.svg">
  <metadata
     id="metadata28">
    <rdf:RDF>
      <cc:Work
         rdf:about="">
        <dc:format>image/svg+xml</dc:format>
        <dc:type
           rdf:resource="http://purl.org/dc/dcmitype/StillImage" />
      </cc:Work>
    </rdf:RDF>
  </metadata>
  <defs
     id="defs26" />
  <sodipodi:namedview
     pagecolor="#ffffff"
     bordercolor="#666666"
     borderopacity="1"
     objecttolerance="10"
     gridtolerance="10"
     guidetolerance="10"
     inkscape:pageopacity="0"
     inkscape:pageshadow="2"
     inkscape:window-width="722"
     inkscape:window-height="480"
     id="namedview24"
     showgrid="false"
     inkscape:zoom="9.8333333"
     inkscape:cx="12"
     inkscape:cy="12"
     inkscape:window-x="10"
     inkscape:window-y="34"
     inkscape:window-maximized="0"
     inkscape:current-layer="svg2" />
  <rect
     ry="1.1720001"
     rx="1.196"
     y="4.9977856"
     x="3"
     height="7.5"
     width="11"
     style="fill:#5d4037;fill-opacity:1;stroke:none"
     id="rect8" />
  <path
     d="M 4.196,4.9978 C 3.534,4.9978 3,5.4978 3,6.2478 l 0,0.75 c 0,-0.693 0.533,-1 1.196,-1 l 8.609,0 c 0.662,0 1.196,0.307 1.196,1 l 0,-0.75 c 0,-0.693 -0.533,-1.25 -1.196,-1.25 z"
     style="opacity:0.1;fill:#ffffff;fill-opacity:1;stroke:none"
     id="path10"
     inkscape:connector-curvature="0" />
  <path
     d="m 4.196,6.9978 1.913,0 c 2.63,-0.236 2.152,-3 3.826,-3 l 2.87,0 c 0.662,0 1.196,0.526 1.196,1.18 l 0,6.639 c 0,0.654 -0.533,1.181 -1.196,1.181 l -8.609,0 C 3.534,12.9978 3,12.4718 3,11.8168 l 0,-3.806 c 0,-0.708 0.478,-1.014 1.196,-1.014 z"
     style="fill:#8d6e63;fill-opacity:1;stroke:none"
     id="path12"
     inkscape:connector-curvature="0" />
  <path
     style="fill:#ffffff;fill-opacity:1;stroke:none;opacity:0.5"
     d="M 9.9355469 3.9980469 C 9.2627484 3.9980469 8.9362386 4.4486615 8.6171875 4.9980469 L 4.1953125 4.9980469 C 3.9467687 4.9980469 3.7300348 5.0871162 3.5390625 5.2148438 C 3.4752615 5.2570754 3.4037708 5.2885773 3.3496094 5.3417969 C 3.2231773 5.4660304 3.13753 5.6230675 3.078125 5.7929688 C 3.0439006 5.8923301 3.0220394 5.9996008 3.0117188 6.1132812 C 3.010706 6.1331501 3 6.149798 3 6.1699219 L 3 6.2480469 L 3 6.9980469 L 3 8.0117188 L 3 10.898438 L 3 11.326172 L 3 11.816406 L 3 11.855469 C 3 12.374231 3.36122 12.792095 3.859375 12.931641 C 3.9682327 12.963641 4.075703 12.998047 4.1953125 12.998047 L 12.804688 12.998047 C 12.887896 12.998047 12.960746 12.966983 13.039062 12.951172 C 13.584289 12.84476 14.001953 12.40815 14.001953 11.855469 L 14.001953 11.816406 L 14.001953 6.9980469 L 14.001953 6.2480469 L 14.001953 5.1777344 C 14.001953 4.5237344 13.466688 3.9980469 12.804688 3.9980469 L 9.9355469 3.9980469 z "
     id="rect4167" />
  <path
     d="m 3,10.8978 0,0.957 c 0,0.632 0.524,1.141 1.196,1.141 l 8.609,0 c 0.662,0 1.196,-0.509 1.196,-1.141 l 0,-0.957 c 0,0.632 -0.533,1.098 -1.196,1.098 l -8.609,0 C 3.534,11.9958 3,11.5298 3,10.8978 Z"
     style="opacity:0.075;fill:#000000;fill-opacity:1;stroke:none"
     id="path14"
     inkscape:connector-curvature="0" />
  <rect
     id="rect16"
     style="fill:#5d4037;fill-opacity:1;stroke:none"
     ry="1.1720001"
     rx="1.196"
     y="11.997786"
     x="10"
     height="7.5"
     width="11" />
  <path
     inkscape:connector-curvature="0"
     id="path18"
     style="opacity:0.2;fill:#ffffff;fill-opacity:1;stroke:none"
     d="m 11.196,11.9978 c -0.662,0 -1.196,0.5 -1.196,1.25 l 0,0.75 c 0,-0.693 0.533,-1 1.196,-1 l 8.609,0 c 0.662,0 1.196,0.307 1.196,1 l 0,-0.75 c 0,-0.693 -0.533,-1.25 -1.196,-1.25 z" />
  <path
     inkscape:connector-curvature="0"
     id="path20"
     style="fill:#8d6e63;fill-opacity:1;stroke:none"
     d="m 11.196,13.9978 1.913,0 c 2.63,-0.236 2.152,-3 3.826,-3 l 2.87,0 c 0.662,0 1.196,0.526 1.196,1.18 l 0,6.639 c 0,0.654 -0.533,1.181 -1.196,1.181 l -8.609,0 c -0.662,0 -1.196,-0.526 -1.196,-1.181 l 0,-3.806 c 0,-0.708 0.478,-1.014 1.196,-1.014 z" />
  <path
     inkscape:connector-curvature="0"
     id="path22"
     style="opacity:0.15;fill:#000000;fill-opacity:1;stroke:none"
     d="m 10,17.8978 0,0.957 c 0,0.632 0.524,1.141 1.196,1.141 l 8.609,0 c 0.662,0 1.196,-0.509 1.196,-1.141 l 0,-0.957 c 0,0.632 -0.533,1.098 -1.196,1.098 l -8.609,0 c -0.662,0 -1.196,-0.466 -1.196,-1.098 z" />
</svg>

<svg viewBox="0 0 24 24" xmlns="http://www.w3.org/2000/svg">
 <rect height="7.5" ry="1.172" width="11" rx="1.196" y="4.998" x="3" style="fill:#5d4037;fill-opacity:1;stroke:none"/>
 <path style="fill:#fff;opacity:0.1;fill-opacity:1;stroke:none" d="m 4.196 4.998 c -0.662 0 -1.196 0.5 -1.196 1.25 l 0 0.75 c 0 -0.693 0.533 -1 1.196 -1 l 8.609 0 c 0.662 0 1.196 0.307 1.196 1 l 0 -0.75 c 0 -0.693 -0.533 -1.25 -1.196 -1.25 z"/>
 <path style="fill:#8d6e63;fill-opacity:1;stroke:none" d="m 4.196,6.9978 1.913,0 c 2.63,-0.236 2.152,-3 3.826,-3 l 2.87,0 c 0.662,0 1.196,0.526 1.196,1.18 l 0,6.639 c 0,0.654 -0.533,1.181 -1.196,1.181 l -8.609,0 C 3.534,12.9978 3,12.4718 3,11.8168 l 0,-3.806 c 0,-0.708 0.478,-1.014 1.196,-1.014 z"/>
 <path style="fill:#fff;opacity:0.5;fill-opacity:1;stroke:none" d="m 9.936 3.998 c -0.673 0 -0.999 0.451 -1.318 1 l -4.422 0 c -0.249 0 -0.465 0.089 -0.656 0.217 c -0.064 0.042 -0.135 0.074 -0.189 0.127 c -0.126 0.124 -0.212 0.281 -0.271 0.451 c -0.034 0.099 -0.056 0.207 -0.066 0.32 c -0.001 0.02 -0.012 0.037 -0.012 0.057 l 0 0.078 l 0 0.75 l 0 1.014 l 0 2.887 l 0 0.428 l 0 0.49 l 0 0.039 c 0 0.519 0.361 0.937 0.859 1.076 c 0.109 0.032 0.216 0.066 0.336 0.066 l 8.609 0 c 0.083 0 0.156 -0.031 0.234 -0.047 c 0.545 -0.106 0.963 -0.543 0.963 -1.096 l 0 -0.039 l 0 -4.818 l 0 -0.75 l 0 -1.07 c 0 -0.654 -0.535 -1.18 -1.197 -1.18 l -2.869 0 z"/>
 <path style="fill:#000;opacity:0.075;fill-opacity:1;stroke:none" d="m 3,10.8978 0,0.957 c 0,0.632 0.524,1.141 1.196,1.141 l 8.609,0 c 0.662,0 1.196,-0.509 1.196,-1.141 l 0,-0.957 c 0,0.632 -0.533,1.098 -1.196,1.098 l -8.609,0 C 3.534,11.9958 3,11.5298 3,10.8978 Z"/>
 <rect height="7.5" ry="1.172" width="11" rx="1.196" y="11.998" x="10" style="fill:#5d4037;fill-opacity:1;stroke:none"/>
 <path style="fill:#fff;opacity:0.2;fill-opacity:1;stroke:none" d="m 11.196 11.998 c -0.662 0 -1.196 0.5 -1.196 1.25 l 0 0.75 c 0 -0.693 0.533 -1 1.196 -1 l 8.609 0 c 0.662 0 1.196 0.307 1.196 1 l 0 -0.75 c 0 -0.693 -0.533 -1.25 -1.196 -1.25 z"/>
 <path style="fill:#8d6e63;fill-opacity:1;stroke:none" d="m 11.196 13.998 1.913 0 c 2.63 -0.236 2.152 -3 3.826 -3 l 2.87 0 c 0.662 0 1.196 0.526 1.196 1.18 l 0 6.639 c 0 0.654 -0.533 1.181 -1.196 1.181 l -8.609 0 c -0.662 0 -1.196 -0.526 -1.196 -1.181 l 0 -3.806 c 0 -0.708 0.478 -1.014 1.196 -1.014 z"/>
 <path style="fill:#000;opacity:0.15;fill-opacity:1;stroke:none" d="m 10 17.898 0 0.957 c 0 0.632 0.524 1.141 1.196 1.141 l 8.609 0 c 0.662 0 1.196 -0.509 1.196 -1.141 l 0 -0.957 c 0 0.632 -0.533 1.098 -1.196 1.098 l -8.609 0 c -0.662 0 -1.196 -0.466 -1.196 -1.098 z"/>
</svg>
